X:1
T:Lady Harriet Hope's Reel
T:Lady Harriet Hope's Reel
T:Miss Margaret Graham of Gartmore's Reel
T:William Marshall
C:William Marshall
L:1/8
Q:1/8=232
M:4/4
K:Bb
V:1 treble 
V:1
 b2 fd ge dc | f2 dB Ac AF | b2 fd ge dc | df Ac dB B2 | b2 fd ge dc | f2 dB Ac AF | b2 fd ge dc | %7
 df Ac dB B2 | DF BF EG cB | Ac fe db fd | DF BF EG cB | Ac Fe dB BF | DF BF EG cB | Ac fe df bf | %14
 ge dc fd cB | A/B/c Fe dB B2 :| %16

